!!!OTL: Iako roza miedzi kolacem glogiem
**kern
*staff1
=1-
*clefC3
*k[b-]
1F
2F/
2c\
=2
2F/
2f\
2f\
2f\
=3
2B-/
2d\
1c
1F;
!!linebreak:original
=4:|!
2.c\
4c\
2c\
2c\
=5
2F/
2B-/
1G
=6
2B-/
2c\
1G
=7
1c;
1F
=8
2B-/
2F/
1c
=9
0F
==
*-
!!title: @{OTL}, @{GTL}, ed. @{ENC}
!!!pag:
!!!GTL: Hymnbook D
!!!EFL: 
!!!YEM: Creative Commons CC/BY/NC/SA 4.0
!!!ENC: Marcin Konik
!!!END: 2015-0m-dd
!!!EED: Marcin Konik
!!!EEV: 
!!!ONB: Encoded in vim by Marcin Konik
!!!CharacterEncoding: utf-8
!!!RDF**kern: l=long note in original notation
!!!RDF**kern: i=editorial accidental
!!muse2ps: z14jc180F
!!!COM: Anonim
!!!CDT: [?]
!!!TXO: Polish
!!!ODT: 
!!!GTL: Hymnbook D
!!!ARL: Opactwo św. Wojciecha, Staniątki 
!!!voices:	1
